src/images/logo.svg

<svg width="135" height="55" viewBox="0 0 135 55" fill="none" xmlns="http://www.w3.org/2000/svg">
<path d="M84.438 23.7806L83.468 20.734L78.7838 20.7928L77.8907 23.8629L74.9554 23.8997L79.3281 10.9414L82.6589 10.8996L87.3733 23.7437L84.438 23.7806ZM82.789 18.4572C81.8929 15.6967 81.3869 14.1356 81.271 13.7737C81.161 13.4118 81.0812 13.1256 81.0317 12.9153C80.8478 13.6677 80.3174 15.529 79.4406 18.4992L82.789 18.4572ZM98.5071 10.7532L101.258 10.7187L97.0514 23.6221L94.081 23.6595L89.5605 10.8656L92.3113 10.8311L94.8241 18.4466C94.9646 18.896 95.1089 19.4216 95.2571 20.0233C95.411 20.6191 95.5071 21.0339 95.5452 21.2678C95.6029 20.728 95.8107 19.7819 96.1688 18.4297L98.5071 10.7532ZM110.342 23.4552L107.617 23.4894L107.484 12.9082L103.995 12.952L103.967 10.6846L113.669 10.5627L113.698 12.8301L110.209 12.874L110.342 23.4552ZM129.729 16.7687C129.756 18.8955 129.249 20.5367 128.209 21.6925C127.168 22.8482 125.664 23.4384 123.695 23.4632C121.727 23.4879 120.208 22.9357 119.139 21.8064C118.07 20.6772 117.522 19.0433 117.495 16.9048C117.468 14.7663 117.975 13.128 119.016 11.9898C120.062 10.8457 121.572 10.2613 123.547 10.2365C125.521 10.2117 127.037 10.761 128.094 11.8845C129.157 13.008 129.702 14.636 129.729 16.7687ZM120.352 16.8865C120.37 18.3219 120.656 19.3995 121.21 20.1191C121.764 20.8388 122.583 21.1918 123.667 21.1782C125.84 21.1509 126.909 19.693 126.873 16.8046C126.836 13.9103 125.737 12.4767 123.575 12.5039C122.491 12.5175 121.679 12.8939 121.137 13.6332C120.596 14.3666 120.334 15.4511 120.352 16.8865Z" fill="#48494D"/>
<path d="M79.8585 44.8398L76.8555 36.5302L76.8008 36.5309C76.8938 37.7694 76.9472 38.931 76.9608 40.0155L77.0218 44.8755L75.5386 44.8941L75.413 34.9008L77.7165 34.8718L80.5916 42.7865L80.6326 42.786L83.3899 34.8005L85.7003 34.7715L85.8258 44.7649L84.2537 44.7846L84.1916 39.8426C84.1854 39.3459 84.1886 38.6987 84.2014 37.9009C84.2187 37.1031 84.2354 36.6198 84.2515 36.451L84.1969 36.4517L81.3008 44.8217L79.8585 44.8398ZM99.0867 39.5871C99.1072 41.2139 98.7152 42.4836 97.9108 43.3961C97.111 44.3086 95.9661 44.7742 94.476 44.7929C92.9676 44.8119 91.8023 44.3799 90.9799 43.4969C90.1621 42.6093 89.7428 41.3407 89.722 39.6911C89.7013 38.0415 90.091 36.7696 90.891 35.8753C91.6956 34.981 92.852 34.5244 94.3604 34.5055C95.846 34.4868 96.9999 34.9212 97.8224 35.8088C98.6448 36.6963 99.0662 37.9557 99.0867 39.5871ZM91.4584 39.683C91.4739 40.9133 91.734 41.8444 92.2387 42.4761C92.7433 43.1033 93.4833 43.4107 94.4584 43.3985C95.4291 43.3863 96.1565 43.0627 96.6408 42.4276C97.1296 41.7925 97.3662 40.853 97.3505 39.6089C97.3351 38.3831 97.0774 37.4566 96.5773 36.8294C96.0817 36.2021 95.3486 35.8945 94.378 35.9067C93.3983 35.919 92.6617 36.245 92.1684 36.8848C91.6797 37.5244 91.443 38.4571 91.4584 39.683ZM106.568 44.5043L104.934 44.5248L104.826 35.9327L101.887 35.9696L101.869 34.5684L109.381 34.474L109.399 35.8752L106.46 35.9122L106.568 44.5043ZM121.674 39.3033C121.695 40.9302 121.303 42.1998 120.498 43.1123C119.698 44.0248 118.554 44.4904 117.063 44.5091C115.555 44.5281 114.39 44.0961 113.567 43.2131C112.749 42.3255 112.33 41.0569 112.309 39.4073C112.289 37.7577 112.678 36.4858 113.478 35.5915C114.283 34.6973 115.439 34.2406 116.948 34.2217C118.433 34.203 119.587 34.6374 120.41 35.525C121.232 36.4125 121.654 37.6719 121.674 39.3033ZM114.046 39.3992C114.061 40.6295 114.321 41.5606 114.826 42.1923C115.331 42.8195 116.071 43.127 117.046 43.1147C118.017 43.1025 118.744 42.7789 119.228 42.1439C119.717 41.5088 119.954 40.5692 119.938 39.3251C119.923 38.0993 119.665 37.1728 119.165 36.5456C118.669 35.9183 117.936 35.6107 116.965 35.6229C115.986 35.6352 115.249 35.9613 114.756 36.601C114.267 37.2406 114.03 38.1734 114.046 39.3992Z" fill="#48494D"/>
<g clip-path="url(#clip0)">
<path d="M42.1538 27.5811L35.364 27.1164C34.3538 27.0475 33.5902 26.1733 33.6591 25.1631C33.6915 24.6805 33.9141 24.2303 34.2777 23.9105L39.3861 19.4156C37.4819 16.7773 34.7569 14.8452 31.6376 13.9209L29.096 20.2417C28.7182 21.1815 27.6504 21.636 26.7106 21.2581C26.2619 21.0777 25.9027 20.7274 25.7119 20.2842L23.0189 14.0348C19.9237 15.0372 17.2482 17.0372 15.4108 19.7225L20.6306 24.0875C21.4078 24.7368 21.5113 25.8926 20.862 26.6698C20.5513 27.0413 20.1068 27.2742 19.6252 27.3197L12.8493 27.9549C12.8503 28.0328 12.8393 28.1081 12.8403 28.186C12.8784 31.362 13.9538 34.4388 15.9022 36.9482L21.6608 33.3354C22.5185 32.7975 23.6502 33.0564 24.1882 33.9142C24.4454 34.3244 24.5295 34.8193 24.4236 35.2909L22.9321 41.9286C26.0207 42.9577 29.3663 42.9157 32.428 41.8093L30.7702 35.2112C30.5231 34.2297 31.1184 33.2331 32.1008 32.986C32.5696 32.8683 33.0664 32.94 33.483 33.1869L39.3276 36.6484C41.2124 34.0909 42.2102 30.988 42.1685 27.812C42.1676 27.7341 42.1566 27.659 42.1538 27.5811ZM27.5377 30.746C26.0188 30.765 24.7724 29.5496 24.7533 28.0307C24.7343 26.5119 25.9497 25.2655 27.4686 25.2464C28.9874 25.2273 30.2338 26.4428 30.2529 27.9616C30.272 29.4805 29.0565 30.7269 27.5377 30.746Z" fill="#D12136"/>
<path d="M27.1692 1.41494C12.489 1.59938 0.737414 13.65 0.921854 28.3302C1.10629 43.0104 13.1569 54.7619 27.8371 54.5775C42.5173 54.393 54.2688 42.3424 54.0844 27.6622C53.9 12.9821 41.8494 1.2305 27.1692 1.41494ZM27.6874 42.6617C19.5874 42.7634 12.9394 36.2804 12.8377 28.1805C12.7359 20.0805 19.2189 13.4325 27.3189 13.3307C35.4188 13.229 42.0668 19.712 42.1686 27.812C42.2704 35.9119 35.7873 42.5599 27.6874 42.6617Z" fill="#2B2733"/>
<path d="M44.6163 7.66239C54.3497 18.6482 53.3361 35.4447 42.3502 45.1781C32.4804 53.9231 17.692 54.1089 7.60568 45.6147C17.3347 56.6051 34.1312 57.6281 45.1217 47.8982C56.1121 38.1683 57.135 21.3726 47.4052 10.3822C46.5431 9.40842 45.6113 8.49977 44.6163 7.66239Z" fill="#1A1721"/>
<path d="M18.9859 5.71691L20.7224 5.12854L19.8398 2.5238L18.1034 3.11217L18.9859 5.71691Z" fill="#555160"/>
<path d="M34.8445 53.0626L36.5883 52.4961L35.7385 49.8805L33.9948 50.447L34.8445 53.0626Z" fill="#3B3944"/>
<path d="M28.0858 1.40348L26.2526 1.42651L26.2871 4.1763L28.1203 4.15326L28.0858 1.40348Z" fill="#555160"/>
<path d="M28.4167 51.3334H26.5834V54.0834H28.4167V51.3334Z" fill="#3B3944"/>
<path d="M12.5185 9.44031L13.9878 8.34399L12.3433 6.14009L10.874 7.23641L12.5185 9.44031Z" fill="#555160"/>
<path d="M42.6609 49.8518L44.1301 48.7555L42.4856 46.5516L41.0164 47.6479L42.6609 49.8518Z" fill="#3B3944"/>
<path d="M7.51711 14.9796L8.57617 13.4833L6.33165 11.8947L5.27259 13.391L7.51711 14.9796Z" fill="#555160"/>
<path d="M48.6752 44.0982L49.7343 42.6018L47.4897 41.0132L46.4307 42.5096L48.6752 44.0982Z" fill="#3B3944"/>
<path d="M4.4718 21.7924L5.01636 20.0417L2.39026 19.2249L1.8457 20.9756L4.4718 21.7924Z" fill="#555160"/>
<path d="M52.6152 36.773L53.1598 35.0223L50.5337 34.2055L49.9891 35.9562L52.6152 36.773Z" fill="#3B3944"/>
<path d="M3.66006 27.3791L0.910278 27.4137L0.933311 29.2469L3.68309 29.2124L3.66006 27.3791Z" fill="#555160"/>
<path d="M54.0729 26.7457L51.3231 26.7803L51.3462 28.6135L54.0959 28.5789L54.0729 26.7457Z" fill="#3B3944"/>
<path d="M2.62389 37.3956L5.22815 36.5128L4.63963 34.7766L2.03537 35.6594L2.62389 37.3956Z" fill="#555160"/>
<path d="M6.74031 44.6233L8.94458 42.979L7.84838 41.5095L5.64411 43.1537L6.74031 44.6233Z" fill="#555160"/>
<path d="M42.0156 9.06935L43.604 6.82446L42.1074 5.76553L40.519 8.01041L42.0156 9.06935Z" fill="#555160"/>
<path d="M35.4606 5.51026L36.2777 2.88464L34.5273 2.33993L33.7102 4.96555L35.4606 5.51026Z" fill="#555160"/>
<path d="M52.9748 20.3331L52.3856 18.5988L50.5964 19.2052C50.7368 19.803 50.86 20.4065 50.9594 21.0186L52.9748 20.3331Z" fill="#3B3944"/>
<path d="M49.3594 12.8365L48.2637 11.367L47.6443 11.8332C47.9563 12.3638 48.2573 12.9027 48.5329 13.4575L49.3594 12.8365Z" fill="#3B3944"/>
<path d="M11.4008 49.168L12.8974 50.2264L13.4937 49.3847C12.9321 49.1232 12.3867 48.8358 11.8476 48.5373L11.4008 49.168Z" fill="#3B3944"/>
<path d="M18.4131 52.4984L20.1547 53.0658L20.8119 51.0418C20.1987 50.9501 19.5937 50.8345 18.9941 50.7017L18.4131 52.4984Z" fill="#3B3944"/>
<path d="M50.3703 21.2157L50.9591 21.0157C50.8598 20.4037 50.7366 19.8002 50.5962 19.2024L49.7811 19.4785L50.3703 21.2157Z" fill="#555160"/>
<path d="M47.1559 14.4812L48.5328 13.4555C48.2573 12.9006 47.9563 12.3626 47.6443 11.8312L46.0594 13.0135L47.1559 14.4812Z" fill="#555160"/>
<path d="M12.9897 46.923L11.8476 48.5371C12.3858 48.8357 12.9322 49.1231 13.4937 49.3846L14.4845 47.9823L12.9897 46.923Z" fill="#555160"/>
<path d="M19.2628 49.8831L18.9969 50.7016C19.5965 50.8345 20.2015 50.9501 20.8147 51.0417L21.0072 50.4505L19.2628 49.8831Z" fill="#555160"/>
<path d="M27.2613 8.74767C16.6306 8.88123 8.12109 17.6073 8.25465 28.238C8.38822 38.8687 17.1143 47.3782 27.745 47.2446C38.3757 47.1111 46.8852 38.385 46.7516 27.7543C46.6181 17.1236 37.892 8.6141 27.2613 8.74767ZM27.6874 42.6616C19.5875 42.7634 12.9394 36.2803 12.8377 28.1804C12.7359 20.0805 19.2189 13.4324 27.3189 13.3307C35.4188 13.2289 42.0668 19.712 42.1686 27.8119C42.2704 35.9118 35.7873 42.5598 27.6874 42.6616Z" fill="#555160"/>
<path d="M40.4569 13.7836C47.8164 21.4394 47.5769 33.6121 39.9212 40.9725C32.6124 47.9985 21.1045 48.1431 13.6214 41.3029C20.96 48.9801 33.1332 49.2544 40.8113 41.9156C48.4894 34.5769 48.7628 22.4038 41.424 14.7257C41.1128 14.4006 40.7898 14.0865 40.4569 13.7836Z" fill="#3B3944"/>
<path d="M35.6929 15.8502C34.4475 15.0042 33.0788 14.3549 31.6351 13.9265L31.1452 15.1437C32.6834 15.205 34.2091 15.4416 35.6929 15.8502Z" fill="#9C1928"/>
<path d="M23.937 16.1711L23.0192 14.0346C19.924 15.0371 17.2484 17.0371 15.4111 19.7223L16.5016 20.6345C18.6269 18.6241 21.1636 17.1016 23.937 16.1711Z" fill="#9C1928"/>
<path d="M27.2498 7.83124C16.1131 7.97116 7.19815 17.113 7.33807 28.2496C7.47799 39.3863 16.6198 48.3012 27.7565 48.1613C38.8931 48.0214 47.8081 38.8796 47.6681 27.7429C47.5155 16.6111 38.3819 7.70417 27.2498 7.83124ZM27.7334 46.3282C17.6087 46.4554 9.29839 38.3513 9.17118 28.2266C9.04398 18.1019 17.1481 9.79157 27.2728 9.66436C37.3975 9.53716 45.7078 17.6413 45.835 27.766C45.9502 37.8853 37.8525 46.1891 27.7334 46.3282Z" fill="black"/>
<path d="M27.3074 12.4141C18.7015 12.5222 11.8129 19.586 11.921 28.192C12.0291 36.798 19.0931 43.6865 27.6989 43.5784C36.3048 43.4702 43.1934 36.4063 43.0853 27.8005C42.968 19.1984 35.9097 12.3153 27.3074 12.4141ZM41.1743 26.596L35.4279 26.2043C34.9233 26.1684 34.5428 25.7295 34.5786 25.2249C34.5958 24.9854 34.7057 24.7622 34.8861 24.6032L39.2011 20.8059C40.2893 22.5616 40.9633 24.5416 41.1743 26.596ZM30.3954 14.5645L28.2476 19.9085C28.0582 20.3785 27.5248 20.6061 27.0549 20.4167C26.831 20.327 26.651 20.1514 26.5556 19.9298L24.2742 14.6414C26.2812 14.1422 28.3766 14.1159 30.3954 14.5645ZM15.6263 21.1003L20.0373 24.7898C20.4254 25.114 20.4777 25.6928 20.1525 26.0809C19.9972 26.2663 19.775 26.3836 19.535 26.4059L13.8003 26.9419C13.9596 24.8808 14.5844 22.8837 15.6291 21.1003L15.6263 21.1004L15.6263 21.1003ZM17.2738 37.1583L22.1417 34.104C22.5701 33.8345 23.1365 33.9641 23.4059 34.3924C23.535 34.5971 23.5775 34.845 23.5235 35.0813L22.2632 40.7058C20.3565 39.9111 18.6526 38.6986 17.2765 37.1583L17.2738 37.1584L17.2738 37.1583ZM24.0095 41.2824L25.3117 35.4833C25.6442 34.0013 24.7127 32.5307 23.2307 32.1973C22.5227 32.0383 21.7809 32.1651 21.167 32.5514L16.1335 35.7114C14.738 33.6572 13.9288 31.2617 13.7931 28.7818L19.7064 28.229C21.2182 28.0863 22.328 26.7439 22.1852 25.2323C22.1165 24.5116 21.7672 23.8468 21.2113 23.3817L16.6531 19.5702C18.1787 17.6122 20.204 16.1016 22.5157 15.198L24.8688 20.6533C25.4703 22.0483 27.0881 22.6908 28.4831 22.0893C29.1497 21.8023 29.6755 21.263 29.9458 20.5895L32.162 15.0768C34.4956 15.9221 36.5583 17.3813 38.1326 19.3004L33.6771 23.225C32.5374 24.2285 32.4262 25.9663 33.4297 27.1059C33.9087 27.65 34.5831 27.9835 35.306 28.033L41.2314 28.4371C41.1581 30.9196 40.4092 33.3345 39.0658 35.4233L33.9481 32.39C32.6421 31.6152 30.9543 32.0462 30.1796 33.3522C29.8097 33.9766 29.7008 34.7214 29.8784 35.4259L31.3259 41.1905C28.9431 41.8989 26.4114 41.9307 24.0115 41.2824L24.0095 41.2824ZM33.058 40.5701L31.6539 34.9792C31.5304 34.4885 31.8285 33.9905 32.3192 33.8671C32.554 33.8081 32.802 33.8445 33.0108 33.9674L37.954 36.8984C36.6179 38.4727 34.9459 39.7277 33.0607 40.57L33.058 40.57L33.058 40.5701Z" fill="black"/>
<path d="M31.1695 27.9502C31.1441 25.9254 29.4819 24.3045 27.4571 24.3299C25.4324 24.3554 23.8114 26.0176 23.8368 28.0423C23.8623 30.0671 25.5245 31.688 27.5492 31.6626C29.574 31.6372 31.195 29.9749 31.1695 27.9502ZM27.5262 29.8295C26.5134 29.8422 25.6827 29.0322 25.67 28.0193C25.6572 27.0065 26.4672 26.1758 27.4801 26.163C28.4929 26.1503 29.3237 26.9603 29.3364 27.9732C29.3491 28.986 28.539 29.8168 27.5262 29.8295Z" fill="black"/>
<path d="M27.8486 55.4941C12.6615 55.6849 0.196077 43.5288 0.00526889 28.3417C-0.185539 13.1546 11.9705 0.689201 27.1576 0.498393C42.3447 0.307585 54.8101 12.4637 55.0009 27.6507C55.1742 42.8307 43.0281 55.2859 27.8486 55.4941ZM27.1807 2.33162C13.0065 2.5097 1.66041 14.1445 1.83849 28.3187C2.01658 42.4928 13.6514 53.8389 27.8255 53.6608C41.9997 53.4827 53.3458 41.848 53.1677 27.6738C52.9733 13.5062 41.3487 2.17005 27.1807 2.33162Z" fill="black"/>
</g>
<defs>
<clipPath id="clip0">
<rect width="55" height="55" fill="white"/>
</clipPath>
</defs>
</svg>

<svg width="135" height="55" fill="none" xmlns="http://www.w3.org/2000/svg"><path d="m84.438 23.78-.97-3.046-4.684.059-.893 3.07-2.936.037 4.373-12.959 3.33-.041 4.715 12.844-2.935.037Zm-1.649-5.323c-.896-2.76-1.402-4.321-1.518-4.683a14.79 14.79 0 0 1-.24-.859c-.183.753-.714 2.614-1.59 5.584l3.348-.042Zm15.718-7.704 2.751-.034-4.207 12.903-2.97.038-4.52-12.794 2.75-.035 2.513 7.616c.14.449.285.975.433 1.576.154.596.25 1.01.288 1.245.058-.54.266-1.486.624-2.838l2.338-7.677Zm11.835 12.702-2.725.034-.133-10.58-3.489.043-.028-2.267 9.702-.122.029 2.267-3.489.044.133 10.581Zm19.387-6.686c.027 2.127-.48 3.768-1.52 4.924-1.041 1.155-2.545 1.745-4.514 1.77-1.968.025-3.487-.527-4.556-1.657-1.069-1.129-1.617-2.763-1.644-4.901-.027-2.139.48-3.777 1.521-4.915 1.046-1.144 2.556-1.729 4.531-1.754 1.974-.024 3.49.525 4.547 1.648 1.063 1.124 1.608 2.752 1.635 4.885Zm-9.377.118c.018 1.435.304 2.512.858 3.232.554.72 1.373 1.073 2.457 1.06 2.173-.028 3.242-1.486 3.206-4.374-.037-2.895-1.136-4.328-3.298-4.301-1.084.014-1.896.39-2.438 1.13-.541.733-.803 1.817-.785 3.253ZM79.859 44.84l-3.003-8.31H76.8c.093 1.24.146 2.401.16 3.486l.06 4.86-1.482.018-.126-9.993 2.303-.03 2.876 7.915h.04L83.39 34.8l2.31-.028.126 9.993-1.572.02-.062-4.942a70.927 70.927 0 0 1 .01-1.942 30.58 30.58 0 0 1 .05-1.45h-.055l-2.896 8.37-1.442.019Zm19.228-5.253c.02 1.627-.372 2.897-1.176 3.81-.8.912-1.945 1.377-3.435 1.396-1.508.019-2.674-.413-3.496-1.296-.818-.888-1.237-2.156-1.258-3.806-.02-1.65.369-2.921 1.169-3.816.805-.894 1.961-1.35 3.47-1.37 1.485-.018 2.639.416 3.461 1.304.823.887 1.244 2.147 1.265 3.778Zm-7.629.096c.016 1.23.276 2.161.78 2.793.505.627 1.245.935 2.22.922.971-.012 1.698-.335 2.183-.97.489-.636.725-1.575.71-2.82-.016-1.225-.274-2.151-.774-2.779-.495-.627-1.228-.934-2.199-.922-.98.012-1.716.338-2.21.978-.488.64-.725 1.572-.71 2.798Zm15.11 4.821-1.634.02-.108-8.591-2.939.037-.018-1.402 7.512-.094.018 1.401-2.939.037.108 8.592Zm15.106-5.2c.021 1.626-.371 2.896-1.176 3.808-.8.913-1.944 1.378-3.435 1.397-1.508.02-2.673-.413-3.496-1.296-.818-.888-1.237-2.156-1.258-3.806-.02-1.65.369-2.921 1.169-3.815.805-.895 1.961-1.351 3.47-1.37 1.485-.019 2.639.415 3.462 1.303.822.888 1.244 2.147 1.264 3.778Zm-7.628.095c.015 1.23.275 2.162.78 2.793.505.627 1.245.935 2.22.923.971-.013 1.698-.336 2.182-.971.489-.635.726-1.575.71-2.819-.015-1.226-.273-2.152-.773-2.78-.496-.627-1.229-.934-2.2-.922-.979.012-1.716.338-2.209.978-.489.64-.726 1.572-.71 2.798Z" fill="#48494D"/><g clip-path="url(#a)"><path d="m42.154 27.581-6.79-.465a1.833 1.833 0 0 1-1.086-3.206l5.108-4.494a14.71 14.71 0 0 0-7.748-5.495l-2.542 6.32a1.833 1.833 0 0 1-3.384.043l-2.693-6.25a14.71 14.71 0 0 0-7.608 5.688l5.22 4.365a1.833 1.833 0 0 1-1.006 3.233l-6.776.635c.001.078-.01.153-.009.231a14.573 14.573 0 0 0 3.062 8.762l5.759-3.613a1.834 1.834 0 0 1 2.763 1.956l-1.492 6.638a14.477 14.477 0 0 0 9.496-.12l-1.658-6.598a1.833 1.833 0 0 1 2.713-2.024l5.845 3.461a14.572 14.572 0 0 0 2.84-8.836c0-.078-.011-.153-.014-.23Zm-14.616 3.165a2.75 2.75 0 1 1-.07-5.5 2.75 2.75 0 0 1 .07 5.5Z" fill="#D12136"/><path d="M27.17 1.415C12.488 1.599.736 13.65.921 28.33c.184 14.68 12.235 26.432 26.915 26.248 14.68-.185 26.432-12.236 26.247-26.916C53.9 12.982 41.85 1.231 27.17 1.415Zm.517 41.247c-8.1.101-14.748-6.382-14.85-14.482-.101-8.1 6.382-14.748 14.482-14.85 8.1-.101 14.748 6.382 14.85 14.482.101 8.1-6.382 14.748-14.482 14.85Z" fill="#2B2733"/><path d="M44.616 7.662c9.734 10.986 8.72 27.783-2.266 37.516-9.87 8.745-24.658 8.93-34.744.437 9.729 10.99 26.525 12.013 37.516 2.283 10.99-9.73 12.013-26.525 2.283-37.516a26.598 26.598 0 0 0-2.789-2.72Z" fill="#1A1721"/><path d="m18.986 5.717 1.736-.588-.882-2.605-1.737.588.883 2.605Z" fill="#555160"/><path d="m34.844 53.063 1.744-.567-.85-2.616-1.743.567.85 2.616Z" fill="#3B3944"/><path d="m28.086 1.403-1.833.024.034 2.75 1.833-.024-.034-2.75Z" fill="#555160"/><path d="M28.417 51.333h-1.834v2.75h1.834v-2.75Z" fill="#3B3944"/><path d="m12.518 9.44 1.47-1.096-1.645-2.204-1.469 1.096 1.644 2.204Z" fill="#555160"/><path d="m42.66 49.852 1.47-1.096-1.644-2.204-1.47 1.096 1.645 2.204Z" fill="#3B3944"/><path d="m7.517 14.98 1.06-1.497-2.245-1.588-1.06 1.496 2.245 1.589Z" fill="#555160"/><path d="m48.675 44.098 1.06-1.496-2.245-1.589-1.06 1.497 2.245 1.588Z" fill="#3B3944"/><path d="m4.472 21.792.544-1.75-2.626-.817-.544 1.75 2.626.817Z" fill="#555160"/><path d="m52.615 36.773.545-1.75-2.626-.818-.545 1.751 2.626.817Z" fill="#3B3944"/><path d="m3.66 27.38-2.75.034.023 1.833 2.75-.035-.023-1.833Z" fill="#555160"/><path d="m54.073 26.746-2.75.034.023 1.833 2.75-.034-.023-1.833Z" fill="#3B3944"/><path d="m2.624 37.396 2.604-.883-.588-1.736-2.605.882.589 1.737ZM6.74 44.623l2.205-1.644-1.097-1.47-2.204 1.645 1.096 1.47ZM42.016 9.07l1.588-2.246-1.497-1.058L40.52 8.01l1.497 1.06ZM35.46 5.51l.818-2.625-1.75-.545-.818 2.626 1.75.544Z" fill="#555160"/><path d="m52.975 20.333-.59-1.734-1.789.606c.14.598.264 1.202.363 1.814l2.016-.686ZM49.36 12.836l-1.096-1.469-.62.466c.312.53.613 1.07.889 1.624l.826-.62ZM11.4 49.168l1.497 1.058.597-.841a26.46 26.46 0 0 1-1.646-.848l-.447.631ZM18.413 52.498l1.742.568.657-2.024a26.582 26.582 0 0 1-1.818-.34l-.58 1.796Z" fill="#3B3944"/><path d="m50.37 21.216.59-.2c-.1-.612-.223-1.216-.364-1.814l-.815.276.59 1.738ZM47.156 14.481l1.377-1.025a26.396 26.396 0 0 0-.889-1.625l-1.585 1.183 1.097 1.467ZM12.99 46.923l-1.142 1.614c.538.299 1.084.586 1.646.848l.99-1.403-1.494-1.059ZM19.263 49.883l-.266.819c.6.133 1.204.248 1.818.34l.192-.592-1.744-.567ZM27.261 8.748c-10.63.133-19.14 8.86-19.006 19.49.133 10.63 8.86 19.14 19.49 19.007 10.63-.134 19.14-8.86 19.007-19.49-.134-10.631-8.86-19.14-19.49-19.007Zm.426 33.914c-8.1.101-14.748-6.382-14.85-14.482-.101-8.1 6.382-14.748 14.482-14.85 8.1-.101 14.748 6.382 14.85 14.482.101 8.1-6.382 14.748-14.482 14.85Z" fill="#555160"/><path d="M40.457 13.784c7.36 7.655 7.12 19.828-.536 27.188-7.309 7.026-18.816 7.171-26.3.33 7.339 7.678 19.512 7.952 27.19.614 7.678-7.34 7.952-19.512.613-27.19-.311-.325-.634-.64-.967-.942Z" fill="#3B3944"/><path d="M35.693 15.85a14.628 14.628 0 0 0-4.058-1.923l-.49 1.217a20.15 20.15 0 0 1 4.548.706ZM23.937 16.171l-.918-2.136a14.71 14.71 0 0 0-7.608 5.687l1.09.912a20.14 20.14 0 0 1 7.436-4.463Z" fill="#9C1928"/><path d="M27.25 7.831c-11.137.14-20.052 9.282-19.912 20.419.14 11.136 9.282 20.051 20.418 19.911 11.137-.14 20.052-9.281 19.912-20.418C47.516 16.61 38.382 7.704 27.25 7.83Zm.483 38.497c-10.124.127-18.435-7.977-18.562-18.101-.127-10.125 7.977-18.435 18.102-18.563 10.125-.127 18.435 7.977 18.562 18.102.115 10.12-7.983 18.423-18.102 18.562Z" fill="#000"/><path d="M27.307 12.414c-8.605.108-15.494 7.172-15.386 15.778.108 8.606 7.172 15.495 15.778 15.386 8.606-.108 15.494-7.172 15.386-15.778-.117-8.602-7.175-15.485-15.778-15.386Zm13.867 14.182-5.746-.392a.917.917 0 0 1-.542-1.6l4.315-3.798a13.634 13.634 0 0 1 1.973 5.79ZM30.395 14.565l-2.147 5.344a.916.916 0 0 1-1.692.02l-2.282-5.288c2.007-.499 4.103-.525 6.121-.076ZM15.626 21.1l4.411 3.69a.916.916 0 0 1-.502 1.616l-5.735.536c.16-2.061.784-4.058 1.83-5.842h-.004Zm1.648 16.058 4.868-3.054a.917.917 0 0 1 1.381.977l-1.26 5.625a13.813 13.813 0 0 1-4.987-3.548h-.002Zm6.735 4.124 1.303-5.799a2.75 2.75 0 0 0-4.145-2.932l-5.034 3.16a13.66 13.66 0 0 1-2.34-6.93l5.913-.552a2.75 2.75 0 0 0 1.505-4.847l-4.558-3.812a13.803 13.803 0 0 1 5.863-4.372l2.353 5.455a2.75 2.75 0 0 0 5.077-.063l2.216-5.513a13.803 13.803 0 0 1 5.97 4.223l-4.455 3.925a2.75 2.75 0 0 0 1.629 4.808l5.925.404a13.66 13.66 0 0 1-2.165 6.986l-5.118-3.033a2.75 2.75 0 0 0-4.07 3.036l1.448 5.764a13.4 13.4 0 0 1-7.314.092h-.003Zm9.049-.712-1.404-5.59a.916.916 0 0 1 1.357-1.013l4.943 2.931a13.805 13.805 0 0 1-4.893 3.672h-.003Z" fill="#000"/><path d="M31.17 27.95a3.667 3.667 0 1 0-7.333.092 3.667 3.667 0 0 0 7.332-.092Zm-3.644 1.88a1.833 1.833 0 1 1-.047-3.666 1.833 1.833 0 0 1 .047 3.665Z" fill="#000"/><path d="M27.849 55.494C12.66 55.684.196 43.53.005 28.342-.185 13.155 11.97.689 27.158.498 42.345.308 54.81 12.464 55 27.651c.173 15.18-11.973 27.635-27.152 27.843ZM27.18 2.332C13.006 2.51 1.66 14.145 1.838 28.319c.179 14.174 11.813 25.52 25.988 25.342C42 53.483 53.346 41.848 53.168 27.674 52.973 13.506 41.348 2.17 27.18 2.332Z" fill="#000"/></g><defs><clipPath id="a"><path fill="#fff" d="M0 0h55v55H0z"/></clipPath></defs></svg>
